X:1
T:Title
%%score 1 { 2 | 3 }
L:1/8
Q:1/4=110
M:4/4
K:G
V:1 treble nm="Grand Piano, Soprano"
V:2 treble nm="Grand Piano, Bass"
V:3 bass 
V:1
 z4 z2 [DG]>[DA] | [GB]>[GB] [GB]>[GA] [GB]2 [DG]>[DA] | [EB]>[EG] [EG]>[CE] [B,G]2 [DG]>[DA] | %3
w: 1.~I~ have~|found~ the~ joy~ of~ God,~ In~ His~|sa cred,~ blest~ a bode,~ Oh,~ the~|
 [GB]>[GB] [GB]>[GB] [GB]>[GB] [GA]>G | [Fd]6 B>c | d>d c>B d2 G>A | B>B A>G B2 [DG]>[DA] | %7
w: com fort~ of~ the~ peace~ that~ fills~ my~|soul!~ And~ a~|day~ His~ courts~ with in,~ Far~ ex|ceed eth~ all~ in~ sin,~ In~ His~|
 [GB]2 [Gd]2 [DA]>[DG] [GB]>[DA] | [DG]4 [DG]2 [GB]>[Gc] | [Gd]4 [Ge]2 [Gc]>[Ge] | %10
w: se cret~ pre sence~ I'm~ a|bid ing.~ * *||
 [Gd]4 [GB]2 [DG]>[DA] | [GB]>[GB] [GB]>[GB] [GB]>[GB] [GA]>G | d6 [GB]>[Gc] | %13
w: |||
 [Gd]4 [Ge]2 [Gc]>[Ge] | [Gd]4 [GB]2 [DG][DA] | [GB]2 [Gd]2 [DA]>[DG] [GB]>[DA] | [DG]4 [DG]2 z2 |] %17
w: ||||
V:2
 z4 z2 B,>C | D>D D>D D2 D>D | C>C C>[K:bass]G, G,2 B,>C | D>[K:treble]D D>D D>D C>[K:bass]B, | %4
 A,6 G,>A, | B,>B, A,>G, B,2 B,>[K:treble]C | D>D C>B, D2 B,>C | D2 D2 C>B, D>C | B,4 B,2 G,>A, | %9
 B,2 B,2[K:treble] C2 C2 | B,4 D2 B,>C | D>D D>D D>D C>[K:bass]B, | A,2 F,>G, A,2 G,>A, | %13
 B,2 B,2[K:treble] C2 C2 | B,4 D2 B,C | D2 D2 C>[K:bass]B, D>C | B,4 B,2 z2 |] %17
V:3
 z4 z2 G,>G, | G,>G, G,>G, G,2 B,,>B,, | C,>C, C,>C, G,,2 G,>G, | G,>G, G,>G, G,>G, G,>G, | %4
 D,6 z2 | z8 | z4 z2 G,>G, | G,2 B,,2 D,>D, D,>D, | [G,,G,]4 [G,,G,]2 z z/ G,/ | %9
 G,2 G,2 C,>D, E,>F, | G,4 G,2 G,>G, | G,>G, G,>G, G,>G, G,>G, | D,6 z z/ G,/ | %13
 G,2 G,2 C,>D, E,>F, | G,4 G,2 G,G, | G,2 B,,2 D,>D, D,>D, | [G,,G,]4 [G,,G,]2 z2 |] %17

